src/16/panel/network-wireless-secure-signal-good.svg

<svg height="16.003" width="16.003" xmlns="http://www.w3.org/2000/svg"><g color="#000" fill="#bebebe"><path d="M8.034 2C5 2 2.268 3.077.003 4.75l8.031 8.75.969-1.069v-1.428h1.014c.02-1.635 1.342-3 2.986-3l.018.002 2.982-3.287C13.746 3.065 11.045 2 8.034 2zm-.062 1c2.393 0 4.524.836 6.437 2.03l-6.437 7L1.597 5c1.9-1.18 4.005-2 6.375-2z" style="marker:none" overflow="visible"/><path d="M7.972 4.969c-1.488 0-2.85.421-4.094 1.062l4.094 4.5 4.125-4.469C10.842 5.414 9.472 4.97 7.972 4.97zM13.003 9.003c-1.108 0-2 .911-2 2.032v.968h-1v4h6v-4h-1v-.968c0-1.12-.892-2.032-2-2.032zm0 1c.554 0 1 .443 1 1v1h-2v-1c0-.557.446-1 1-1z" style="marker:none" overflow="visible"/></g></svg>

<svg xmlns="http://www.w3.org/2000/svg" width="16" height="16" version="1.1">
 <defs>
  <style id="current-color-scheme" type="text/css">
   .ColorScheme-Text { color:#dfdfdf; } .ColorScheme-Highlight { color:#4285f4; }
  </style>
 </defs>
 <path style="fill:currentColor" class="ColorScheme-Text" d="M 13,9 C 11.892,9 11,9.911 11,11.031 V 12 H 10 V 16 H 16 V 12 H 15 V 11.031 C 15,9.911 14.108,9 13,9 Z M 13,10 C 13.554,10 14,10.442 14,11 V 12 H 12 V 11 C 12,10.442 12.446,10 13,10 Z"/>
 <path style="opacity:0.3;fill:currentColor" class="ColorScheme-Text" d="M 8.029,2 8.031,2.002 C 4.9969,2.002 2.2653,3.2718 0,5.0156 L 8.031,13.996 9,12.9 V 11 H 10.014 C 10.033,9.365 11.356,8 13,8 13.104,8 13.203,8.021 13.305,8.031 L 16,4.9844 C 13.742,3.2633 11.04,2 8.029,2 Z"/>
 <path style="fill:currentColor" class="ColorScheme-Text" d="M 8.031,4.998 C 5.7884,4.998 3.4752,5.711 1.8008,7 L 8.031,14 9,12.9 V 11 H 10.014 C 10.033,9.365 11.356,8 13,8 13.1,8 13.194,8.021 13.291,8.031 L 14.199,7 C 12.532,5.7274 10.259,5.002 8.033,5.002 Z"/>
</svg>
